app/img/icons/ic--size.svg

<svg xmlns="http://www.w3.org/2000/svg" preserveAspectRatio="xMidYMid" width="30" height="30" viewBox="0 0 30 30"><defs><style>.cls-1{fill:#fff;fill-rule:evenodd}</style></defs><path d="M26.522 29.787a.73.73 0 0 1-.997 0 .707.707 0 0 1 0-1.006l2.046-2.053H3.96a.714.714 0 0 1-.718-.701V2.447L1.204 4.483a.706.706 0 0 1-1.015 0 .734.734 0 0 1 0-1.014L3.445.224l.008-.007A.758.758 0 0 1 3.96.005c.128 0 .254.017.339.102h.009a.464.464 0 0 1 .185.135h.008l3.223 3.227a.728.728 0 0 1 .008 1.014.695.695 0 0 1-1.006 0L4.671 2.447v22.861h22.9l-2.046-2.044c-.288-.262-.288-.734 0-1.014a.733.733 0 0 1 .997 0l3.264 3.262h.017a.796.796 0 0 1 .203.515.696.696 0 0 1-.237.524l-.017.009-3.23 3.227zM18.674 10.27h5.133a.723.723 0 0 0 .719-.718c0-.389-.33-.71-.719-.71h-4.075c.143-.143.296-.287.464-.397.517-.363 1.218-.617 1.844-.836 1.159-.389 1.877-1.141 2.19-1.969l.026-.042c.178-.507.22-1.031.126-1.563a3.09 3.09 0 0 0-.575-1.343l-.033-.051a3.166 3.166 0 0 0-2.529-1.208c-.422 0-.845.093-1.217.245l-.059.033c-.406.153-.754.44-1.066.744a3.96 3.96 0 0 0-.702 1.141h.017a3.411 3.411 0 0 0-.254 1.309c0 .389.313.719.71.719.398 0 .728-.33.728-.719 0-.279.033-.557.127-.811h.009c.101-.245.252-.473.413-.659.169-.177.373-.321.6-.431l.026-.016a1.77 1.77 0 0 1 2.072.532l.017.034c.169.219.263.464.313.726a1.54 1.54 0 0 1-.059.811l-.017.051c-.178.456-.592.87-1.328 1.106-.719.254-1.531.566-2.19 1.014-.727.532-1.294 1.2-1.404 2.172-.017.034-.017.076-.017.118a.71.71 0 0 0 .71.718zm-6.358 12.774h5.352a1.19 1.19 0 0 0 1.201-1.182c0-.651-.541-1.2-1.201-1.2h-1.48V7.372c0-.667-.541-1.2-1.184-1.2-.372 0-.693.152-.921.423l-3.391 3.379c-.465.49-.465 1.217.017 1.69a1.17 1.17 0 0 0 1.666 0l1.421-1.419v10.417h-1.48c-.669 0-1.201.549-1.201 1.2 0 .659.532 1.182 1.201 1.182z" class="cls-1"/></svg>

<svg xmlns="http://www.w3.org/2000/svg" xmlns:xlink="http://www.w3.org/1999/xlink" preserveAspectRatio="xMidYMid" width="30" height="30" viewBox="0 0 30 30">
  <defs>
    <style>
      .cls-1 {
        fill: #fff;
        fill-rule: evenodd;
      }
    </style>
  </defs>
  <path d="M26.522,29.787 C26.243,30.049 25.795,30.049 25.525,29.787 C25.245,29.508 25.245,29.069 25.525,28.781 L27.571,26.728 L3.960,26.728 C3.572,26.728 3.242,26.416 3.242,26.027 L3.242,25.993 L3.242,2.447 L1.204,4.483 C0.933,4.770 0.468,4.770 0.189,4.483 C-0.082,4.204 -0.082,3.756 0.189,3.469 L3.445,0.224 L3.453,0.217 C3.589,0.089 3.774,0.005 3.960,0.005 C4.088,0.005 4.214,0.022 4.299,0.107 L4.308,0.107 C4.384,0.132 4.434,0.182 4.493,0.242 L4.501,0.242 L7.724,3.469 C8.002,3.756 8.002,4.204 7.732,4.483 C7.461,4.770 7.005,4.770 6.726,4.483 L4.671,2.447 L4.671,25.308 L27.571,25.308 L25.525,23.264 C25.237,23.002 25.237,22.530 25.525,22.250 C25.795,21.989 26.243,21.989 26.522,22.250 L29.786,25.512 L29.786,25.512 L29.803,25.512 C29.922,25.656 30.006,25.824 30.006,26.027 C30.006,26.230 29.913,26.432 29.769,26.551 L29.752,26.560 L26.522,29.787 L26.522,29.787 ZM18.674,10.270 L18.674,10.270 L23.807,10.270 C24.196,10.270 24.526,9.949 24.526,9.552 C24.526,9.163 24.196,8.842 23.807,8.842 L19.732,8.842 C19.875,8.699 20.028,8.555 20.196,8.445 C20.713,8.082 21.414,7.828 22.040,7.609 C23.199,7.220 23.917,6.468 24.230,5.640 L24.256,5.598 C24.434,5.091 24.476,4.567 24.382,4.035 C24.306,3.570 24.104,3.080 23.807,2.692 L23.774,2.641 C23.216,1.931 22.336,1.433 21.245,1.433 C20.823,1.433 20.400,1.526 20.028,1.678 L19.969,1.711 C19.563,1.864 19.215,2.151 18.903,2.455 C18.607,2.793 18.370,3.174 18.201,3.596 L18.218,3.596 C18.049,4.002 17.964,4.449 17.964,4.905 C17.964,5.294 18.277,5.624 18.674,5.624 C19.072,5.624 19.402,5.294 19.402,4.905 C19.402,4.626 19.435,4.348 19.529,4.094 L19.538,4.094 C19.639,3.849 19.790,3.621 19.951,3.435 C20.120,3.258 20.324,3.114 20.551,3.004 L20.577,2.988 C20.780,2.911 21.009,2.852 21.245,2.852 C21.854,2.852 22.336,3.131 22.649,3.520 L22.666,3.554 C22.835,3.773 22.929,4.018 22.979,4.280 C23.038,4.567 23.004,4.846 22.920,5.091 L22.903,5.142 C22.725,5.598 22.311,6.012 21.575,6.248 C20.856,6.502 20.044,6.814 19.385,7.262 C18.658,7.794 18.091,8.462 17.981,9.434 C17.964,9.468 17.964,9.510 17.964,9.552 C17.964,9.949 18.277,10.270 18.674,10.270 L18.674,10.270 ZM12.316,23.044 L12.316,23.044 L14.937,23.044 L15.004,23.044 L15.047,23.044 L17.668,23.044 C18.328,23.044 18.869,22.521 18.869,21.862 C18.869,21.211 18.328,20.662 17.668,20.662 L16.188,20.662 L16.188,7.372 C16.188,6.705 15.647,6.172 15.004,6.172 C14.632,6.172 14.311,6.324 14.083,6.595 L10.692,9.974 C10.227,10.464 10.227,11.191 10.709,11.664 C11.157,12.129 11.926,12.129 12.375,11.664 L13.796,10.245 L13.796,20.662 L12.316,20.662 C11.647,20.662 11.115,21.211 11.115,21.862 C11.115,22.521 11.647,23.044 12.316,23.044 L12.316,23.044 Z" class="cls-1"/>
</svg>
